svgs/scoop.svg

<svg width="192" height="192" viewBox="0 0 192 192" fill="none" xmlns="http://www.w3.org/2000/svg">
<path d="M150.194 63.1111H131.193C128.15 56.6978 123.957 51.1889 118.886 46.9956L129.908 33.5933L120.373 22L105.7 39.8422C102.589 38.9378 99.4107 38.4444 96.0972 38.4444C92.7838 38.4444 89.6056 38.9378 86.5626 39.8422L71.8211 22L62.2865 33.5933L73.2412 46.9956C68.2372 51.1889 64.0446 56.6978 61.0017 63.1111H42V79.5556H56.1329C55.7948 82.2689 55.5243 84.9822 55.5243 87.7778V96H42V112.444H55.5243V120.667C55.5243 123.462 55.7948 126.176 56.1329 128.889H42V145.333H61.0017C68.0343 160.051 81.0853 170 96.0972 170C111.109 170 124.16 160.051 131.193 145.333H150.194V128.889H136.062C136.4 126.176 136.67 123.462 136.67 120.667V112.444H150.194V96H136.67V87.7778C136.67 84.9822 136.4 82.2689 136.062 79.5556H150.194V63.1111ZM109.622 128.889H82.5729V112.444H109.622V128.889ZM109.622 96H82.5729V79.5556H109.622V96Z" stroke="black" stroke-width="12" stroke-linecap="round" stroke-linejoin="round"/>
</svg>

<svg xmlns="http://www.w3.org/2000/svg" width="192" height="192" fill="none" viewBox="0 0 192 192"><path stroke="#000" stroke-linecap="round" stroke-linejoin="round" stroke-width="12" d="M150.194 63.111h-19.001c-3.043-6.413-7.236-11.922-12.307-16.115l11.022-13.403L120.373 22 105.7 39.842c-3.111-.904-6.29-1.398-9.603-1.398a33.31 33.31 0 0 0-9.534 1.398L71.82 22l-9.535 11.593 10.955 13.403c-5.004 4.193-9.196 9.702-12.24 16.115H42v16.445h14.133c-.338 2.713-.609 5.426-.609 8.222V96H42v16.444h13.524v8.223c0 2.795.27 5.509.609 8.222H42v16.444h19.002C68.034 160.051 81.085 170 96.097 170s28.063-9.949 35.096-24.667h19.001v-16.444h-14.132c.338-2.713.608-5.427.608-8.222v-8.223h13.524V96H136.67v-8.222c0-2.796-.27-5.51-.608-8.222h14.132V63.11Zm-40.572 65.778h-27.05v-16.445h27.05v16.445Zm0-32.889h-27.05V79.556h27.05V96Z"/></svg>
